X:38
T:Fruja fruja Ciacio (M. Martinotti) - Mazurca
C:La Ciapa Rusa: Aji  & Safran
M:3/4
L:1/8
K:G
d3d cB|d3d BA|G3 B (3BAG|GD GB dB|A3A (3EAc|
A3c ~BA|1 B3 c (3dcB|AG FA d2:|2 BG DG (3DGB|G6|]
|:AG FD FA|AG FD (3FGA|BA GD GA|BA GE (3GAB|\
cE Ac EA|
BD GB DG|1 AG FE DC|\
B,A, G,G, (3G,DG:|2 AG FD (3FGA|G2G2z2|]
K:C
G3E Gc|e4 c2|Gc ec (3cde|f2 d2(3FGA|A3F Ac|~B6|\
B3A BA|G2E2 (3GEG|
c3G cd|e6|d3c de|f2~c4|\
Bc dB dB|Gc ee cG|dc Bd (3dcB|c2c2z2|]
